X: 0
T: The Moon Shines Bright
Z: English Traditional
Z: Copyright © 2005 by Douglas D. Anderson
Z: Released To The Public Domain
L: 1/4
M: 4/4
Q: 1/4=80
V: P1 name="Staff"
%%MIDI program 1 19
K: G
[V: P1]  B | (E/4B3/4) (B3/4A/4) G(3 (E/F/)G/ | A d3/4 G/4 F3/ A/ |(3 (G/F/)E/ E e d/ ^c/ | B3 e | (d/^c/) (B/A/) B3/ G/ | E(3 (E/F/)G/ A (G/A/) | B d3/4 B/4 (B/A/) (G/F/) | E2|]
w: The moon_ shines_ bright and_ the stars give a light A lit-_ tle be- fore it is day; Our Lord_ our_ God he cal- led_ on us And_ bids us a- wake_ and_ pray.

